modules/hawcons-stroke/icons/icon-63-document-music.svg

<?xml version="1.0" encoding="UTF-8" standalone="no"?>
<svg width="32px" height="32px" viewBox="0 0 32 32" version="1.1" xmlns="http://www.w3.org/2000/svg" xmlns:xlink="http://www.w3.org/1999/xlink" xmlns:sketch="http://www.bohemiancoding.com/sketch/ns">
    <!-- Generator: Sketch 3.0.3 (7891) - http://www.bohemiancoding.com/sketch -->
    <title>icon 63 document music</title>
    <desc>Created with Sketch.</desc>
    <defs></defs>
    <g id="Page-1" stroke="none" stroke-width="1" fill="none" fill-rule="evenodd" sketch:type="MSPage">
        <g id="icon-63-document-music" sketch:type="MSArtboardGroup" fill="#929292">
            <path d="M22,15.2222222 L22,21.4998169 C21.5821697,21.1859724 21.062803,21 20.5,21 C19.1192881,21 18,22.1192881 18,23.5 C18,24.8807119 19.1192881,26 20.5,26 C21.8807119,26 23,24.8807119 23,23.5 L23,15 L23,14 L14,16 L14,16.5 L14,22.4998169 C13.5821697,22.1859724 13.062803,22 12.5,22 C11.1192881,22 10,23.1192881 10,24.5 C10,25.8807119 11.1192881,27 12.5,27 C13.8807119,27 15,25.8807119 15,24.5 L15,16.7777778 L22,15.2222222 L22,15.2222222 Z M19.5,3 L9.00276013,3 C7.89666625,3 7,3.89833832 7,5.00732994 L7,27.9926701 C7,29.1012878 7.89092539,30 8.99742191,30 L24.0025781,30 C25.1057238,30 26,29.1017876 26,28.0092049 L26,10.5 L26,10 L20,3 L19.5,3 L19.5,3 L19.5,3 Z M19,4 L8.9955775,4 C8.44573523,4 8,4.45526288 8,4.99545703 L8,28.004543 C8,28.5543187 8.45470893,29 8.9999602,29 L24.0000398,29 C24.5523026,29 25,28.5550537 25,28.0066023 L25,11 L20.9979131,11 C19.8944962,11 19,10.1134452 19,8.99408095 L19,4 L19,4 Z M20,4.5 L20,8.99121523 C20,9.54835167 20.4506511,10 20.9967388,10 L24.6999512,10 L20,4.5 L20,4.5 Z M12.5,26 C13.3284272,26 14,25.3284272 14,24.5 C14,23.6715728 13.3284272,23 12.5,23 C11.6715728,23 11,23.6715728 11,24.5 C11,25.3284272 11.6715728,26 12.5,26 L12.5,26 Z M20.5,25 C21.3284272,25 22,24.3284272 22,23.5 C22,22.6715728 21.3284272,22 20.5,22 C19.6715728,22 19,22.6715728 19,23.5 C19,24.3284272 19.6715728,25 20.5,25 L20.5,25 Z" id="document-music" sketch:type="MSShapeGroup"></path>
        </g>
    </g>
</svg>

<svg width="32" height="32" viewBox="0 0 32 32" xmlns="http://www.w3.org/2000/svg"><path d="M22 15.222V21.5a2.5 2.5 0 1 0 1 2V14l-9 2v6.5a2.5 2.5 0 1 0 1 2v-7.722l7-1.556zM19.5 3H9.003A2.005 2.005 0 0 0 7 5.007v22.986A2 2 0 0 0 8.997 30h15.006A1.999 1.999 0 0 0 26 28.01V10l-6-7h-.5zM19 4H8.996C8.446 4 8 4.455 8 4.995v23.01c0 .55.455.995 1 .995h15c.552 0 1-.445 1-.993V11h-4.002A1.995 1.995 0 0 1 19 8.994V4zm1 .5v4.491c0 .557.45 1.009.997 1.009H24.7L20 4.5zM12.5 26a1.5 1.5 0 1 0 0-3 1.5 1.5 0 0 0 0 3zm8-1a1.5 1.5 0 1 0 0-3 1.5 1.5 0 0 0 0 3z" fill="#929292" fill-rule="evenodd"/></svg>
